Numix-Light/16x16/status/nm-signal-50.svg

<?xml version="1.0" encoding="UTF-8" standalone="no"?>
<svg
   xmlns:dc="http://purl.org/dc/elements/1.1/"
   xmlns:cc="http://creativecommons.org/ns#"
   xmlns:rdf="http://www.w3.org/1999/02/22-rdf-syntax-ns#"
   xmlns:svg="http://www.w3.org/2000/svg"
   xmlns="http://www.w3.org/2000/svg"
   xmlns:sodipodi="http://sodipodi.sourceforge.net/DTD/sodipodi-0.dtd"
   xmlns:inkscape="http://www.inkscape.org/namespaces/inkscape"
   width="16"
   height="16"
   viewBox="0 0 16 16"
   id="svg3146"
   version="1.1"
   inkscape:version="0.48.5 r10040"
   sodipodi:docname="nm-signal-50.svg">
  <metadata
     id="metadata3176">
    <rdf:RDF>
      <cc:Work
         rdf:about="">
        <dc:format>image/svg+xml</dc:format>
        <dc:type
           rdf:resource="http://purl.org/dc/dcmitype/StillImage" />
      </cc:Work>
    </rdf:RDF>
  </metadata>
  <defs
     id="defs3174" />
  <sodipodi:namedview
     pagecolor="#ffffff"
     bordercolor="#666666"
     borderopacity="1"
     objecttolerance="10"
     gridtolerance="10"
     guidetolerance="10"
     inkscape:pageopacity="0"
     inkscape:pageshadow="2"
     inkscape:window-width="1280"
     inkscape:window-height="970"
     id="namedview3172"
     showgrid="false"
     inkscape:zoom="14.75"
     inkscape:cx="8.1355932"
     inkscape:cy="7.8644068"
     inkscape:window-x="0"
     inkscape:window-y="0"
     inkscape:window-maximized="1"
     inkscape:current-layer="svg3146" />
  <g
     style="fill:#000000"
     id="g3148"
     transform="matrix(0.96240595,0,0,0.96631823,0.30075242,0.41840859)">
    <g
       style="fill-opacity:0.122"
       id="g3150">
      <path
         d="m 8,2.363281 c -2.675781,0 -5.171875,0.910157 -7.273438,2.484375 L 0.867188,5.074219 2.230469,6.972656 C 3.925781,5.777344 5.992188,5.074219 8.019531,5.074219 c 2.023438,0.00391 4.074219,0.703125 5.765625,1.898437 L 15.132812,5.074219 15.273438,4.847656 C 13.171875,3.273438 10.675781,2.363281 8,2.363281 z"
         id="path3152"
         inkscape:connector-curvature="0" />
      <path
         d="m 8.019531,5.953125 c -1.9375,0 -3.75,0.621094 -5.308593,1.6875 L 4,9.457031 c 1.199219,-0.75 2.574219,-1.1875 4.019531,-1.1875 1.441407,0 2.804688,0.4375 3.996094,1.1875 L 13.308594,7.640625 C 11.753906,6.574219 9.953125,5.953125 8.019531,5.953125 z"
         id="path3154"
         inkscape:connector-curvature="0" />
    </g>
    <path
       style="fill-opacity:0.30199998"
       d="m 8.019531,9.144531 c -1.273437,0 -2.480469,0.371094 -3.539062,1 l 1.324219,1.859375 C 6.484375,11.675781 7.222656,11.480469 8,11.480469 c 0.78125,0 1.53125,0.1875 2.210938,0.523437 l 1.308593,-1.859375 c -1.054687,-0.625 -2.238281,-1 -3.5,-1 z"
       id="path3156"
       inkscape:connector-curvature="0" />
  </g>
  <g
     style="fill:#353535"
     id="g3158"
     transform="matrix(0.96240595,0,0,0.96631823,0.30075242,0.41840859)">
    <g
       style="fill-opacity:0.4"
       id="g3160">
      <path
         d="m 8,1.636719 c -2.675781,0 -5.171875,0.90625 -7.273438,2.480469 L 0.867188,4.347656 2.230469,6.246094 C 3.925781,5.050781 5.992188,4.347656 8.019531,4.347656 c 2.023438,0 4.074219,0.703125 5.765625,1.898438 L 15.132812,4.347656 15.273438,4.117188 C 13.171875,2.542969 10.675781,1.636719 8,1.636719 z"
         id="path3162"
         inkscape:connector-curvature="0" />
      <path
         d="m 8.019531,5.226562 c -1.9375,0 -3.75,0.617188 -5.308593,1.6875 L 4,8.730469 C 5.199219,7.976562 6.574219,7.539062 8.019531,7.539062 c 1.441407,0 2.804688,0.4375 3.996094,1.191407 L 13.308594,6.914062 C 11.753906,5.84375 9.953125,5.226562 8.019531,5.226562 z"
         id="path3164"
         inkscape:connector-curvature="0" />
    </g>
    <path
       d="m 8.019531,8.417969 c -1.273437,0 -2.480469,0.367187 -3.539062,1 l 1.324219,1.859375 C 6.484375,10.945312 7.222656,10.753906 8,10.753906 c 0.78125,0 1.53125,0.1875 2.210938,0.523438 l 1.308593,-1.859375 c -1.054687,-0.625 -2.238281,-1 -3.5,-1 z"
       id="path3166"
       inkscape:connector-curvature="0" />
  </g>
  <path
     style="fill:#000000;fill-opacity:0.30199998"
     d="m 8,12.380371 c -0.5714285,0 -1.1090227,0.132114 -1.6165418,0.343496 L 8,15 9.6165417,12.70122 C 9.1127819,12.493612 8.5676694,12.380371 8,12.380371 z"
     id="path3168"
     inkscape:connector-curvature="0" />
  <path
     style="fill:#353535"
     d="m 8,11.678281 c -0.5714285,0 -1.1090227,0.132113 -1.6165418,0.343495 L 8,14.297909 9.6165417,11.999129 C 9.1127819,11.791521 8.5676694,11.678281 8,11.678281 z"
     id="path3170"
     inkscape:connector-curvature="0" />
</svg>

<svg width="16" xmlns="http://www.w3.org/2000/svg" height="16" viewBox="0 0 16 16" xmlns:xlink="http://www.w3.org/1999/xlink">
<g style="fill:#000">
<g style="fill-opacity:.122">
<path d="M 8 2.363281 C 5.324219 2.363281 2.828125 3.273438 0.726562 4.847656 L 0.867188 5.074219 L 2.230469 6.972656 C 3.925781 5.777344 5.992188 5.074219 8.019531 5.074219 C 10.042969 5.078125 12.09375 5.777344 13.785156 6.972656 L 15.132812 5.074219 L 15.273438 4.847656 C 13.171875 3.273438 10.675781 2.363281 8 2.363281 Z "/>
<path d="M 8.019531 5.953125 C 6.082031 5.953125 4.269531 6.574219 2.710938 7.640625 L 4 9.457031 C 5.199219 8.707031 6.574219 8.269531 8.019531 8.269531 C 9.460938 8.269531 10.824219 8.707031 12.015625 9.457031 L 13.308594 7.640625 C 11.753906 6.574219 9.953125 5.953125 8.019531 5.953125 Z "/>
</g>
<path style="fill-opacity:.302" d="M 8.019531 9.144531 C 6.746094 9.144531 5.539062 9.515625 4.480469 10.144531 L 5.804688 12.003906 C 6.484375 11.675781 7.222656 11.480469 8 11.480469 C 8.78125 11.480469 9.53125 11.667969 10.210938 12.003906 L 11.519531 10.144531 C 10.464844 9.519531 9.28125 9.144531 8.019531 9.144531 Z "/>
</g>
<g style="fill:#353535">
<g style="fill-opacity:.4">
<path d="M 8 1.636719 C 5.324219 1.636719 2.828125 2.542969 0.726562 4.117188 L 0.867188 4.347656 L 2.230469 6.246094 C 3.925781 5.050781 5.992188 4.347656 8.019531 4.347656 C 10.042969 4.347656 12.09375 5.050781 13.785156 6.246094 L 15.132812 4.347656 L 15.273438 4.117188 C 13.171875 2.542969 10.675781 1.636719 8 1.636719 Z "/>
<path d="M 8.019531 5.226562 C 6.082031 5.226562 4.269531 5.84375 2.710938 6.914062 L 4 8.730469 C 5.199219 7.976562 6.574219 7.539062 8.019531 7.539062 C 9.460938 7.539062 10.824219 7.976562 12.015625 8.730469 L 13.308594 6.914062 C 11.753906 5.84375 9.953125 5.226562 8.019531 5.226562 Z "/>
</g>
<path d="M 8.019531 8.417969 C 6.746094 8.417969 5.539062 8.785156 4.480469 9.417969 L 5.804688 11.277344 C 6.484375 10.945312 7.222656 10.753906 8 10.753906 C 8.78125 10.753906 9.53125 10.941406 10.210938 11.277344 L 11.519531 9.417969 C 10.464844 8.792969 9.28125 8.417969 8.019531 8.417969 Z "/>
</g>
<path style="fill:#000;fill-opacity:.302" d="M 8 12.378906 C 7.40625 12.378906 6.847656 12.515625 6.320312 12.734375 L 8 15.089844 L 9.679688 12.710938 C 9.15625 12.496094 8.589844 12.378906 8 12.378906 Z "/>
<path style="fill:#353535" d="M 8 11.652344 C 7.40625 11.652344 6.847656 11.789062 6.320312 12.007812 L 8 14.363281 L 9.679688 11.984375 C 9.15625 11.769531 8.589844 11.652344 8 11.652344 Z "/>
</svg>
